packages/kaspersky-hexa-ui-icons/src/iconsSVGs/24/Sandbox.svg

<svg width="24" height="24" viewBox="0 0 24 24" fill="none" xmlns="http://www.w3.org/2000/svg">
<path fill-rule="evenodd" clip-rule="evenodd" d="M11.5557 2.10879C11.8393 1.96432 12.1747 1.96371 12.4588 2.10713L21.4324 6.63717C21.6571 6.75062 21.8206 6.93747 21.9083 7.15398C21.9722 7.28711 22.0068 7.43477 22.0068 7.58716V16.4842C22.0068 16.8629 21.7933 17.2091 21.4552 17.3788L12.4608 21.8908C12.4133 21.9151 12.3642 21.9353 12.3141 21.9515C12.1482 22.0052 11.9709 22.0145 11.8004 21.9784C11.7152 21.9604 11.6319 21.9312 11.5529 21.8908L2.55852 17.3788C2.22037 17.2091 2.00684 16.8629 2.00684 16.4842V7.58716C2.00684 7.24285 2.18363 6.92273 2.47488 6.73968C2.51781 6.7127 2.56234 6.68925 2.60806 6.66936C2.62614 6.65868 2.64466 6.6485 2.66363 6.63883L11.5557 2.10879ZM12.011 4.12222L18.7936 7.54621L15.8784 8.9553L12.0072 6.97974L8.13305 8.95423L5.25592 7.56354L12.011 4.12222ZM13.0062 19.3789V12.5658L20.0082 9.18128V15.8663L13.0062 19.3789ZM11.0075 12.5658L4.00545 9.18128V15.8663L11.0075 19.3789V12.5658Z" fill="black"/>
</svg>

<svg xmlns="http://www.w3.org/2000/svg" width="24" height="24" fill="none" viewBox="0 0 24 24"><path fill="#000" fill-rule="evenodd" d="M11.5557 2.1088a.998.998 0 0 1 .9031-.0017l8.9736 4.53a.996.996 0 0 1 .4759.5169c.0639.1331.0985.2808.0985.4332v8.897c0 .3787-.2135.7249-.5516.8946l-8.9944 4.512a.998.998 0 0 1-.9079 0l-8.9944-4.512a1.001 1.001 0 0 1-.5517-.8946v-8.897a1.001 1.001 0 0 1 .6013-.9178 1 1 0 0 1 .0555-.0306zm.4553 2.0134 6.7826 3.424-2.9152 1.4091-3.8712-1.9756-3.8741 1.9745-2.8772-1.3907zm.9952 15.2567v-6.8131l7.002-3.3845v6.685zm-1.9987-6.8131-7.002-3.3845v6.685l7.002 3.5126z"/></svg>
